packages/icons/src/components/Logo/assets/dark/drupal.svg

<svg width="20" height="20" viewBox="0 0 20 20" fill="none" xmlns="http://www.w3.org/2000/svg">
<path d="M13.1494 4.25989C11.7421 2.85325 10.3994 1.51232 9.99976 0C9.60013 1.51232 8.25721 2.85325 6.85013 4.25989C4.73951 6.36918 2.3465 8.75974 2.3465 12.3452C2.34617 13.3505 2.54389 14.346 2.92836 15.2748C3.31284 16.2037 3.87654 17.0477 4.58726 17.7586C5.29799 18.4696 6.14181 19.0336 7.07054 19.4183C7.99927 19.8031 8.9947 20.0012 9.99998 20.0012C11.0053 20.0012 12.0007 19.8031 12.9294 19.4183C13.8582 19.0336 14.702 18.4696 15.4127 17.7586C16.1234 17.0477 16.6871 16.2037 17.0716 15.2748C17.4561 14.346 17.6538 13.3505 17.6535 12.3452C17.6535 8.75997 15.2607 6.36918 13.1494 4.25989V4.25989ZM5.59947 14.1286C5.13019 14.1126 3.39827 11.1274 6.61126 7.94892L8.73743 10.2714C8.75568 10.2894 8.7699 10.3111 8.77917 10.335C8.78844 10.359 8.79253 10.3846 8.79119 10.4102C8.78985 10.4358 8.7831 10.4608 8.77139 10.4837C8.75968 10.5065 8.74326 10.5266 8.72323 10.5426C8.21588 11.063 6.0534 13.2315 5.78461 13.9813C5.72914 14.1361 5.64811 14.1302 5.59946 14.1286H5.59947ZM9.99999 18.063C9.65432 18.063 9.31204 17.9949 8.99268 17.8626C8.67332 17.7303 8.38315 17.5364 8.13872 17.292C7.89429 17.0476 7.70041 16.7574 7.56812 16.4381C7.43584 16.1187 7.36776 15.7764 7.36776 15.4307C7.37748 14.7925 7.6095 14.1776 8.02384 13.6921C8.49846 13.1117 9.99964 11.4794 9.99964 11.4794C9.99964 11.4794 11.4778 13.1357 11.9719 13.6866C12.4023 14.165 12.6379 14.7873 12.6322 15.4307C12.6322 16.1289 12.3549 16.7984 11.8613 17.292C11.3676 17.7857 10.6981 18.063 9.99999 18.063ZM15.0381 13.7944C14.9813 13.9185 14.8526 14.1256 14.6789 14.132C14.3693 14.1432 14.3363 13.9846 14.1074 13.6459C13.605 12.9024 9.22037 8.31998 8.40027 7.43374C7.67891 6.65426 8.29869 6.10472 8.58618 5.81674C8.94687 5.45541 9.99972 4.40321 9.99972 4.40321C9.99972 4.40321 13.139 7.3818 14.4468 9.417C15.7545 11.4522 15.3038 13.2133 15.0381 13.7944" fill="white"/>
</svg>

<svg xmlns="http://www.w3.org/2000/svg" width="20" height="20" fill="none" viewBox="0 0 20 20">
    <path fill="#fff" d="M13.15 4.26C11.741 2.853 10.4 1.512 10 0c-.4 1.512-1.743 2.853-3.15 4.26-2.11 2.11-4.503 4.5-4.503 8.085a7.653 7.653 0 1 0 15.307 0c0-3.585-2.393-5.976-4.505-8.085M5.6 14.129c-.47-.016-2.202-3.002 1.011-6.18l2.126 2.322a.182.182 0 0 1-.014.272c-.507.52-2.67 2.689-2.938 3.438-.056.155-.137.15-.186.148m4.4 3.934a2.63 2.63 0 0 1-2.632-2.632c.01-.638.241-1.253.656-1.739C8.498 13.112 10 11.48 10 11.48s1.478 1.657 1.972 2.208c.43.478.666 1.1.66 1.744A2.63 2.63 0 0 1 10 18.063m5.038-4.269c-.057.124-.185.332-.36.338-.309.011-.342-.147-.57-.486-.503-.744-4.888-5.326-5.708-6.212-.721-.78-.101-1.33.186-1.617C8.946 5.455 10 4.403 10 4.403s3.139 2.979 4.447 5.014.857 3.796.591 4.377"/>
</svg>
